ProjectFiles/res/Information6_ELEMENT_1.svg

<svg version="1.2" baseProfile="tiny" viewBox="0 0 32 32" xmlns:xlink="http://www.w3.org/1999/xlink" xmlns="http://www.w3.org/2000/svg">
<path style="fill:#ffffff;" d="M11,11H18V25.5L18.25,25.75L18.875,25.875L20,26V27.5H11V26L12.125,25.875L12.75,25.75L13,25.5V13L12.7574,12.6386L11,12.5V11Z M18,6.5C18,7.88071,16.8807,9,15.5,9C14.1193,9,13,7.88071,13,6.5C13,5.11929,14.1193,4,15.5,4C16.8807,4,18,5.11929,18,6.5Z"/>
</svg>

<svg xmlns="http://www.w3.org/2000/svg" baseProfile="tiny" version="1.2" viewBox="0 0 32 32"><path d="M11 11h7v14.5l.25.25.625.125L20 26v1.5h-9V26l1.125-.125.625-.125.25-.25V13l-.243-.361L11 12.5zm7-4.5a2.5 2.5 0 1 1-5 0 2.5 2.5 0 0 1 5 0" style="fill:#fff"/></svg>
